packages/icons/src/components/Flags/assets/default/slovenia.svg

<svg width="24" height="24" viewBox="0 0 24 24" fill="none" xmlns="http://www.w3.org/2000/svg">
<g>
<path d="M12 24C18.6274 24 24 18.6274 24 12C24 5.37258 18.6274 0 12 0C5.37258 0 0 5.37258 0 12C0 18.6274 5.37258 24 12 24Z" fill="#F0F0F0"/>
<path d="M23.2536 7.82613H10.4348V4.69568H4.17389V7.82613H0.746391C0.264047 9.12607 0 10.5322 0 12C0 13.4679 0.264047 14.8739 0.746391 16.1739L12 17.2174L23.2536 16.1739C23.736 14.8739 24 13.4679 24 12C24 10.5322 23.736 9.12607 23.2536 7.82613Z" fill="#0052B4"/>
<path d="M12.0001 24.0001C17.1597 24.0001 21.5582 20.7436 23.2537 16.174H0.746521C2.44204 20.7436 6.84055 24.0001 12.0001 24.0001Z" fill="#D80027"/>
<path d="M4.17395 7.82604V8.86948C4.17395 11.2658 7.3044 12 7.3044 12C7.3044 12 10.4349 11.2658 10.4349 8.86948V7.82604L9.39137 8.86952L7.3044 7.30432L5.21743 8.86952L4.17395 7.82604Z" fill="#F0F0F0"/>
</g>
<defs>
<clipPath id="clip0_3072_215">
<rect width="24" height="24" fill="white"/>
</clipPath>
</defs>
</svg>

<svg xmlns="http://www.w3.org/2000/svg" width="24" height="24" fill="none" viewBox="0 0 24 24">
    <path fill="#f0f0f0" d="M12 24c6.627 0 12-5.373 12-12S18.627 0 12 0 0 5.373 0 12s5.373 12 12 12"/>
    <path fill="#0052b4" d="M23.254 7.826h-12.82v-3.13h-6.26v3.13H.746A12 12 0 0 0 0 12c0 1.468.264 2.874.746 4.174L12 17.217l11.254-1.043c.482-1.3.746-2.706.746-4.174s-.264-2.874-.746-4.174"/>
    <path fill="#d80027" d="M12 24c5.16 0 9.558-3.256 11.254-7.826H.747C2.442 20.744 6.84 24 12 24"/>
    <path fill="#f0f0f0" d="M4.174 7.826v1.043c0 2.397 3.13 3.131 3.13 3.131s3.13-.734 3.13-3.13V7.825L9.392 8.87 7.304 7.304 5.217 8.87z"/>
</svg>
